sprites/streets-v8/_svg/town-hall-11.svg

<?xml version="1.0" encoding="utf-8"?>
<!-- Generator: Adobe Illustrator 17.1.0, SVG Export Plug-In . SVG Version: 6.00 Build 0)  -->
<!DOCTYPE svg PUBLIC "-//W3C//DTD SVG 1.1//EN" "http://www.w3.org/Graphics/SVG/1.1/DTD/svg11.dtd">
<svg version="1.1"
	 id="svg2" xmlns:svg="http://www.w3.org/2000/svg" xmlns:cc="http://creativecommons.org/ns#" xmlns:dc="http://purl.org/dc/elements/1.1/" xmlns:rdf="http://www.w3.org/1999/02/22-rdf-syntax-ns#"
	 xmlns="http://www.w3.org/2000/svg" xmlns:xlink="http://www.w3.org/1999/xlink" x="0px" y="0px" width="19px" height="19px"
	 viewBox="0 0 19 19" enable-background="new 0 0 19 19" xml:space="preserve">
<ellipse id="ellipse4" fill="#FFFFFF" cx="9.5" cy="9.5" rx="9.5" ry="9.5"/>
<ellipse id="ellipse6" fill="#A9A199" cx="9.5" cy="9.5" rx="8.5" ry="8.5"/>
<g id="g8" transform="translate(4,4)">
	<path id="path6818" fill="#FFFFFF" d="M5.5,0L1,2v1h9V2L5.5,0z M2,4v4L1,9v1h9V9L9,8V4H8.5h-6H2z M3,5h1v3H3V5z M5,5h1v3H5V5z M7,5
		h1v3H7V5z"/>
	<path id="path6850" fill="#FFFFFF" d="M85.5,0.5l-4,1.5v1h8V2L85.5,0.5z M82.5,4H82v4l-0.5,1v1h8V9L89,8V4h-0.5H82.5z"/>
	<path id="path6852" fill="none" stroke="#FFFFFF" stroke-linecap="round" stroke-linejoin="round" d="M83.5,8.5v-3l2,2l2-2v3"/>
</g>
</svg>

<?xml version="1.0" encoding="UTF-8" standalone="no"?>
<svg
   xmlns:dc="http://purl.org/dc/elements/1.1/"
   xmlns:cc="http://creativecommons.org/ns#"
   xmlns:rdf="http://www.w3.org/1999/02/22-rdf-syntax-ns#"
   xmlns:svg="http://www.w3.org/2000/svg"
   xmlns="http://www.w3.org/2000/svg"
   id="svg2"
   width="19"
   height="19"
   viewBox="0 0 19 19"
   version="1.1">
  <metadata
     id="metadata14">
    <rdf:RDF>
      <cc:Work
         rdf:about="">
        <dc:format>image/svg+xml</dc:format>
        <dc:type
           rdf:resource="http://purl.org/dc/dcmitype/StillImage" />
      </cc:Work>
    </rdf:RDF>
  </metadata>
  <defs
     id="defs12" />
  <ellipse
     id="ellipse4"
     ry="9.5"
     rx="9.5"
     cy="9.5"
     cx="9.5"
     style="fill:#ffffff;stroke:none;" />
  <ellipse
     id="ellipse6"
     rx="8.5"
     ry="8.5"
     cy="9.5"
     cx="9.5"
     style="fill:#a9a199;stroke:none;" />
  <g
     id="g8"
     transform="translate(4,4)">
    <metadata     id="metadata8"><rdf:RDF><cc:Work         rdf:about=""><dc:format>image/svg+xml</dc:format><dc:type           rdf:resource="http://purl.org/dc/dcmitype/StillImage" /><dc:title /></cc:Work></rdf:RDF></metadata><defs     id="defs6" /><path     id="path6818"     d="M 5.5 0 L 1 2 L 1 3 L 10 3 L 10 2 L 5.5 0 z M 2 4 L 2 8 L 1 9 L 1 10 L 10 10 L 10 9 L 9 8 L 9 4 L 8.5 4 L 2.5 4 L 2 4 z M 3 5 L 4 5 L 4 8 L 3 8 L 3 5 z M 5 5 L 6 5 L 6 8 L 5 8 L 5 5 z M 7 5 L 8 5 L 8 8 L 7 8 L 7 5 z "     style="fill:#ffffff;fill-opacity:1" /><path     d="m 85.5,0.5 -4,1.5 0,1 8,0 0,-1 z m -3,3.5 -0.5,0 0,4 -0.5,1 0,1 8,0 0,-1 L 89,8 89,4 88.5,4 Z"     id="path6850"     style="fill:#ffffff;fill-opacity:1" /><path     id="path6852"     d="m 83.5,8.5 0,-3 2,2 2,-2 0,3"     style="fill:none;fill-rule:evenodd;stroke:#ffffff;stroke-width:1px;stroke-linecap:round;stroke-linejoin:round;stroke-opacity:1" />
  </g>
</svg>
